X:83
T:Untitled. HA.082
M:3/4
L:1/4
Q:3/4=60
S:Henry Atkinson’s original MS,Hartburn,N’umberland,1694.
O:England
A:Hartburn,Northumberland
N:Key arrived at by implication, likewise E naturals in B strain by
N:preceding E being flattened in MS..CGP.
H:1/4
Z:vmp.Chris Partington.Jan.2004
K:Bb
“_No Key Sig. in MS”ggd|g2a|b/a/”^qu”gb|a/g/a/b/”^qu”a|
ggd|Bed|cA2|G3:|
|:AdA|BGe|gd”^b”e|=ece|
a=eg|”^sic”fdc’|”^cr””_e flat f nat in ms”=e^f2|g3:|

